!!!!SEGMENT: pl-kk--kk-i-2--028_anonim--o-admirabile-commercium.krn
!!!cenid: 16xx:1648
!!!COM: Anonim
!!!COM-rismid: pe30004985
!!!CDT:
!!!CNT:
!!!OTL: O admirabile commercium
!!!PDT:
!!!AGN: Sacred
!!!SMS-siglum: PL-Kk
!!!SMS-shelfmark: Kk.I.2
!!!SMS-shelfwork: 028 W
!!!NIFC-rismid: 300258046
!!!URL-scan: http://repozytorium.nifc.pl/skany/pl-kk-nut--i-2
!!!ONB-nifc: skany: C: 0054-0055; A: 0157; T: 0259; B: 0357;
**kern	**text	**kern	**text	**kern	**text	**kern	**text
*part4	*part4	*part3	*part3	*part2	*part2	*part1	*part1
*staff4	*staff4	*staff3	*staff3	*staff2	*staff2	*staff1	*staff1
*Iempty	*	*Itenor	*	*Iempty	*	*Iempty	*
*I"BASVS	*	*I"TENOR	*	*I"ALTVS	*	*I"DISCANTVS	*
*I'B	*	*I'T	*	*I'A	*	*I'S	*
*clefF4	*	*clefC5	*	*clefC4	*	*clefC2	*
*k[b-]	*	*k[b-]	*	*k[b-]	*	*k[b-b-]	*
*F:	*	*F:	*	*F:	*	*F:	*
*M2/1	*	*M2/1	*	*M2/1	*	*M2/1	*
*met(c|)	*	*met(c|)	*	*met(c|)	*	*met(c|)	*
=1-	=1-	=1-	=1-	=1-	=1-	=1-	=1-
00r	.	00r	.	2.F/	O	0f\	O
.	.	.	.	4G/	.	.	.
.	.	.	.	2A/	.	.	.
.	.	.	.	2.B-/	.	.	.
=2-	=2-	=2-	=2-	=2-	=2-	=2-	=2-
.	.	.	.	.	.	0d/	.
.	.	.	.	4F/	.	.	.
.	.	.	.	1B-\	.	.	.
.	.	.	.	4A/	.	.	.
.	.	.	.	4G/	.	.	.
=3-	=3-	=3-	=3-	=3-	=3-	=3-	=3-
*lig	*	*	*	*	*	*lig	*
0Fl\	O	00r	.	1A\	.	0c/	ad-
.	.	.	.	2r	.	.	.
.	.	.	.	1A\	aad-	.	.
=4-	=4-	=4-	=4-	=4-	=4-	=4-	=4-
00D\	.	.	.	.	.	0.f\	.
.	.	.	.	2B-/	-mi-	.	.
.	.	.	.	2A/	.	.	.
.	.	.	.	2.B-/	.	.	.
*Xlig	*	*	*	*	*	*Xlig	*
=5-	=5-	=5-	=5-	=5-	=5-	=5-	=5-
.	.	00r	.	.	.	.	.
.	.	.	.	4A/	.	.	.
.	.	.	.	1A\	.	.	.
.	.	.	.	.	.	1f\	-mi-
.	.	.	.	4G/	.	.	.
.	.	.	.	4F/	.	.	.
=6-	=6-	=6-	=6-	=6-	=6-	=6-	=6-
0C/	.	.	.	2E/	.	0g\	-ra-
.	.	.	.	1F/	.	.	.
.	.	.	.	2E/	-ra-	.	.
=7-	=7-	=7-	=7-	=7-	=7-	=7-	=7-
*	*	*lig	*	*lig	*	*	*
0FF/	.	0F\	O	1F/	.	1.a\	.
.	.	.	.	1A\	.	.	.
.	.	.	.	.	.	2.f/	.
*	*	*	*	*Xlig	*	*	*
!LO:TX:t=P:problem:kreska pseudotaktowa	!	!	!	!	!	!	!
=8-	=8-	=8-	=8-	=8-	=8-	=8-	=8-
1F\	ad-	0D/	.	2B-/	.	.	.
.	.	.	.	.	.	4g/	.
.	.	.	.	1c\	.	2a/	.
1F\	-mi-	.	.	.	.	1d/	-bi-
.	.	.	.	2B-/	-bi-	.	.
=9-	=9-	=9-	=9-	=9-	=9-	=9-	=9-
0.G\	-ra-	00C/	.	1.c\	-le	1e\	-le
.	.	.	.	.	.	2r	.
.	.	.	.	2C/	com-	1g\	co-
*	*	*Xlig	*	*	*	*	*
=10-	=10-	=10-	=10-	=10-	=10-	=10-	=10-
.	.	.	.	2.E/	-mer-	.	.
.	.	.	.	.	.	2.e/	-mer-
.	.	.	.	4F/	.	.	.
1G\	-bi-	.	.	2G/	.	.	.
.	.	.	.	.	.	4f/	-ci-
!	!	!	!	!LO:SIC:v:t=custos F	!	!	!
.	.	.	.	2E/	.	2g/	-u(m)
!	!	!	!	!LO:LB:g=original	!	!	!
=11-	=11-	=11-	=11-	=11-	=11-	=11-	=11-
1.A\	-le	0F\	ad-	1.F/	.	1.c/	.
*	*	*	*	*	*	*	*ij
2.F/	com-	.	.	2.A/	.	2c/	O
!LO:TX:t=P:problem:kreska pseudotaktowa	!	!	!	!	!	!	!
=12-	=12-	=12-	=12-	=12-	=12-	=12-	=12-
.	.	0F\	-mi-	.	.	1c/	ad-
4G\	.	.	.	4B-/	.	.	.
*2\right	*	*	*	*2\right	*	*	*
2A\	.	.	.	2c\	.	.	.
1.D\	-mer-	.	.	2A/	.	2r	.
.	.	.	.	2B-/	.	1f\	.
=13-	=13-	=13-	=13-	=13-	=13-	=13-	=13-
*	*	*lig	*	*	*	*	*
.	.	0F\	-ra-	2A/	.	.	.
2.BB-/	.	.	.	1B-\	.	2.d/	-mi-
!LO:TX:t=P:problem:kreska pseudotaktowa	!	!	!	!	!	!	!
4C/	.	.	.	.	.	4e/	-ra-
2D/	.	.	.	2A/	.	2f/	-bi-
=14-	=14-	=14-	=14-	=14-	=14-	=14-	=14-
2.GG/	.	0.G\	.	2G/	.	2e/	-le
.	.	.	.	4F/	.	1d/	co-
4AA/	.	.	.	4E/	.	.	.
!LO:TX:t=P:problem:kreska pseudotaktowa	!	!	!	!	!	!	!
2BB-/	.	.	.	2D/	-ci-	.	.
!	!	!	!	!	!	!LO:SIC:v:t=custos d	!
1C/	.	.	.	2E/	.	2c/	-mer-
*	*	*Xlig	*	*	*	*	*
!	!	!	!	!	!	!LO:LB:g=original	!
=15-	=15-	=15-	=15-	=15-	=15-	=15-	=15-
*	*	*	*	*	*	*lig	*
.	.	.	.	1D/	-um	1d/	-ci-
2BB-/	.	.	.	.	.	.	.
1C/	-ci-	1G\	-bi-	2C/	.	1e\	.
.	.	.	.	1c\	cre-	.	.
*	*	*	*	*	*	*Xlig	*
=16-	=16-	=16-	=16-	=16-	=16-	=16-	=16-
*lig	*	*	*	*	*	*	*
1GGl/	.	1G\	-le	.	.	1d/	-u(m)
.	.	.	.	2B-/	-a-	.	.
1C/	.	1G\	co(m)-	1c\	.	2r	.
*	*	*	*	*	*	*2\right	*
.	.	.	.	.	.	2.g\	O
*Xlig	*	*	*	*	*	*	*
=17-	=17-	=17-	=17-	=17-	=17-	=17-	=17-
*lig	*	*	*	*	*	*	*
1BB-l/	.	0B-\	-mer-	0d\	-tor	.	.
.	.	.	.	.	.	4f/	ad-
.	.	.	.	.	.	2.b-\	-mi-
!LO:SIC:v:t=custos C	!	!	!	!	!	!	!
1GG/	.	.	.	.	.	.	.
.	.	.	.	.	.	4a\	-ra-
.	.	.	.	.	.	4g\	-bi-
.	.	.	.	.	.	4f\	-le
*Xlig	*	*	*	*	*	*	*
!LO:LB:g=original	!	!	!	!	!	!	!
=18-	=18-	=18-	=18-	=18-	=18-	=18-	=18-
1C/	-um	0G\	-ci-	1.c\	.	2e/	co-
.	.	.	.	.	.	1f\	-mer-
2r	.	.	.	.	.	.	.
!LO:TX:t=P:problem:kreska pseudotaktowa	!	!	!	!	!	!	!
2C/	cre-	.	.	1A\	.	2e/	-ci-
=19-	=19-	=19-	=19-	=19-	=19-	=19-	=19-
2.D/	-a-	0F\	-um	.	.	1f\	-u(m)
*	*	*	*	*	*	*	*Xij
.	.	.	.	1B-\	.	.	.
4C/	.	.	.	.	.	.	.
4D/	.	.	.	.	.	1r	.
4E/	.	.	.	.	.	.	.
1F\	.	.	.	4A/	.	.	.
.	.	.	.	4G/	.	.	.
=20-	=20-	=20-	=20-	=20-	=20-	=20-	=20-
.	.	1r	.	4A/	.	1c/	cre-
.	.	.	.	4G/	.	.	.
2E/	.	.	.	1c\	.	.	.
*	*	*	*	*	*	*lig	*
!LO:TX:t=P:problem:kreska pseudotaktowa	!	!	!	!	!	!	!
1D\	.	1F\	cre-	.	.	1d/	-a-
.	.	.	.	2B-/	.	.	.
=21-	=21-	=21-	=21-	=21-	=21-	=21-	=21-
*	*	*lig	*	*	*	*	*
1C/	-tor	1G\	-a-	1.c\	.	1e\	.
*	*	*	*	*	*	*Xlig	*
2r	.	1A\	.	.	.	1c/	-tor
*	*ij	*	*	*	*	*	*
1F\	cre-	.	.	1A\	.	.	.
*	*	*Xlig	*	*	*	*	*
=22-	=22-	=22-	=22-	=22-	=22-	=22-	=22-
.	.	1F\	-tor	.	.	1r	.
4E/	.	.	.	4G/	.	.	.
!LO:TX:t=P:problem:kreska pseudotaktowa	!	!	!	!	!	!	!
4D/	.	.	.	4F/	.	.	.
2E/	-a-	1r	.	2G/	.	1g\	ge-
2C/	-tor	.	.	1c\	cre-	.	.
*	*Xij	*	*	*	*	*	*
=23-	=23-	=23-	=23-	=23-	=23-	=23-	=23-
2r	.	1G\	hu-	.	.	1e\	-ne-
1C/	ge-	.	.	4B-/	.	.	.
!	!	!	!	!LO:SIC:v:t=custos G	!	!	!
.	.	.	.	4A/	.	.	.
!	!	!	!	!LO:LB:g=original	!	!	!
.	.	1E/	-ma-	2.G/	-a-	1.g\	-ris
4BB-/	.	.	.	.	.	.	.
4AA/	.	.	.	4A/	.	.	.
=24-	=24-	=24-	=24-	=24-	=24-	=24-	=24-
2.GG/	-ne-	1G\	-ni	2B-/	.	.	.
.	.	.	.	2.G/	.	4f/	.
!LO:TX:t=P:problem:kreska pseudotaktowa	!	!	!	!	!	!	!
4AA/	.	.	.	.	.	4e/	.
*	*	*lig	*	*	*	*	*
1BB-/	-ris	1G\	ge-	.	.	1d/	.
.	.	.	.	4F/	-tor	.	.
.	.	.	.	2D/	.	.	.
=25-	=25-	=25-	=25-	=25-	=25-	=25-	=25-
1AA/	.	1A\	.	2.E/	.	2.c/	hu-
.	.	.	.	4F/	.	4d/	.
*	*	*Xlig	*	*	*	*	*
*	*	*2\right	*	*	*	*	*
2GG/	.	2B-\	-ne-	4G/	.	2e/	.
.	.	.	.	4C/	.	.	.
!LO:TX:t=P:problem:kreska pseudotaktowa	!	!	!	!	!	!	!
2FF/	hu-	1A\	.	1c\	ge-	2f/	.
=26-	=26-	=26-	=26-	=26-	=26-	=26-	=26-
2AA/	-ma-	.	.	.	.	2c/	.
2D/	-ni	4G/	.	2B-\	.	1f\	.
.	.	4F/	.	.	.	.	.
!	!	!LO:SIC:v:t=custos F	!	!	!	!	!
1C/	.	1G\	.	1c\	.	.	.
.	.	.	.	.	.	2e/	-ma-
!LO:TX:t=P:problem:kreska pseudotaktowa	!	!	!	!	!	!	!
!	!	!LO:LB:g=original	!	!	!	!	!
=27-	=27-	=27-	=27-	=27-	=27-	=27-	=27-
*	*ij	*	*	*lig	*	*	*
2r	.	1.F\	.	1A\	-ne-	1f\	-ni
1D\	ge-	.	.	.	.	.	.
!	!	!	!	!	!	!LO:SIC:v:t=custos f	!
.	.	.	.	1d\	.	1r	.
4C/	.	2G/	.	.	.	.	.
!LO:TX:t=P:problem:kreska pseudotaktowa	!	!	!	!	!	!	!
4BB-/	.	.	.	.	.	.	.
*	*	*	*	*Xlig	*	*	*
!	!	!	!	!	!	!LO:PB:g=original	!
=28-	=28-	=28-	=28-	=28-	=28-	=28-	=28-
2AA/	-ne-	2A/	.	2c\	-ris	1f\	a-
1BB-/	-ris	1D/	.	1d\	hu-	.	.
.	.	.	.	.	.	1f\	-ni-
4AA/	.	2E/	.	4c\	.	.	.
4GG/	.	.	.	4B-\	.	.	.
=29-	=29-	=29-	=29-	=29-	=29-	=29-	=29-
*	*	*	*	*	*	*lig	*
2FF/	hu-	2F/	.	2A/	.	1a\	-ma-
!LO:TX:t=P:problem:kreska pseudotaktowa	!	!	!	!	!	!	!
!LO:SIC:v:t=custos GG	!	!	!	!	!	!	!
2AA/	.	2C/	.	2c\	-ma-	.	.
!LO:LB:g=original	!	!	!	!	!	!	!
1GG/	-ma-	2.D/	.	2B-\	.	1b-\	.
.	.	.	.	2G/	-ni	.	.
.	.	4E/	.	.	.	.	.
*	*	*	*	*	*	*Xlig	*
=30-	=30-	=30-	=30-	=30-	=30-	=30-	=30-
*	*	*	*	*	*ij	*lig	*
1FF/	.	1F\	.	2A/	cre-	1a\	-tum
.	.	.	.	2.c\	-a-	.	.
*lig	*	*	*	*	*	*	*
1C/	-ni	1E/	.	.	.	1g\	.
.	.	.	.	4B-\	.	.	.
.	.	.	.	2c\	-tor	.	.
*	*Xij	*	*	*	*	*Xlig	*
=31-	=31-	=31-	=31-	=31-	=31-	=31-	=31-
1GG/	.	2.G/	.	1.d\	ge-	1b-\	cor-
.	.	4F/	.	.	.	.	.
*Xlig	*	*	*	*	*	*	*
2r	.	2D/	.	.	.	2a\	-pus
2C/	.	2E/	.	2G/	-ne-	2.g/	.
=32-	=32-	=32-	=32-	=32-	=32-	=32-	=32-
2AA/	.	2F/	.	2A/	-ris	.	.
.	.	.	.	.	.	4f/	.
2FF/	.	2A\	.	2.c\	hu-	1f\	.
1C/	a-	1G\	.	.	.	.	.
.	.	.	.	4B-/	.	.	.
!	!	!	!	!LO:SIC:v:t=custos A	!	!	!
.	.	.	.	2c\	.	2e/	ſu-
!LO:TX:t=P:problem:kreska pseudotaktowa	!	!	!	!LO:LB:g=original	!	!	!
=33-	=33-	=33-	=33-	=33-	=33-	=33-	=33-
1FF/	-ni-	1F\	-ris	2A/	-ma-	00f\	-me(n)s
.	.	.	.	2.c\	-ni	.	.
*	*	*	*	*	*Xij	*	*
1FF/	-ma-	1r	.	.	.	.	.
.	.	.	.	4B-/	.	.	.
.	.	.	.	2.A/	a-	.	.
=34-	=34-	=34-	=34-	=34-	=34-	=34-	=34-
*lig	*	*	*	*	*	*	*
1AA/	.	1F\	a-	.	.	.	.
.	.	.	.	4G/	.	.	.
.	.	.	.	4F/	.	.	.
.	.	.	.	4E/	.	.	.
1BB-/	.	1F\	-ni-	1D/	-ni-	.	.
*Xlig	*	*	*	*	*	*	*
=35-	=35-	=35-	=35-	=35-	=35-	=35-	=35-
*	*	*lig	*	*	*	*	*
2AA/	.	1A\	-ma-	2C/	.	00r	.
2FF/	.	.	.	1F/	-ma-	.	.
1GG/	.	1B-\	.	.	.	.	.
.	.	.	.	2E/	.	.	.
*	*	*Xlig	*	*	*	*	*
=36-	=36-	=36-	=36-	=36-	=36-	=36-	=36-
!LO:TX:t=P:problem:kreska pseudotaktowa	!	!	!	!	!	!	!
1FF/	-tum	2A\	.	1F/	-tu(m)	.	.
.	.	2F/	.	.	.	.	.
1r	.	1G\	.	2E/	.	.	.
.	.	.	.	2C/	.	.	.
=37-	=37-	=37-	=37-	=37-	=37-	=37-	=37-
1BB-/	cor-	1F\	-tu(m)	1D/	.	0r	.
!LO:TX:t=P:problem:kreska pseudotaktowa	!	!	!	!	!	!	!
1AA/	-p(us)	1r	.	2C/	cor-	.	.
.	.	.	.	2.F/	.	.	.
=38-	=38-	=38-	=38-	=38-	=38-	=38-	=38-
1GG/	ſu-	1B-\	cor-	.	.	1g\	de
.	.	.	.	4E/	.	.	.
.	.	.	.	4D/	.	.	.
.	.	.	.	4E/	.	.	.
*	*	*	*	*lig	*	*	*
!LO:TX:t=P:problem:kreska pseudotaktowa	!	!	!	!	!	!	!
1FF/	-me(n)s	1A\	-p(us)	1F/	-pus	2a\	v(ir-
.	.	.	.	.	.	1f\	-gi)-
=39-	=39-	=39-	=39-	=39-	=39-	=39-	=39-
1r	.	0G\	ſu-	1C/	.	.	.
.	.	.	.	.	.	4e/	.
.	.	.	.	.	.	4d/	.
*	*	*	*	*Xlig	*	*	*
1C/	de	.	.	2r	.	1e\	.
.	.	.	.	1c\	ſu-	.	.
=40-	=40-	=40-	=40-	=40-	=40-	=40-	=40-
0D\	vir-	1F\	-me(n)s	.	.	1f\	-ne
.	.	.	.	4B-/	.	.	.
.	.	.	.	4A/	.	.	.
.	.	1F\	de	1B-\	-me(n)s	2r	.
.	.	.	.	.	.	1f\	naſ-
=41-	=41-	=41-	=41-	=41-	=41-	=41-	=41-
!	!	!LO:SIC:v:t=custos F	!	!	!	!	!
1C/	-gi-	0G\	vir-	0c\	.	.	.
.	.	.	.	.	.	4e/	.
.	.	.	.	.	.	4d/	.
!LO:TX:t=P:problem:kreska pseudotaktowa	!	!	!	!	!	!	!
1C/	-ne	.	.	.	.	4e/	.
.	.	.	.	.	.	4d/	.
.	.	.	.	.	.	4c/	.
.	.	.	.	.	.	4B-/	.
!	!	!LO:LB:g=original	!	!	!	!	!
=42-	=42-	=42-	=42-	=42-	=42-	=42-	=42-
0D\	naſ-	1F\	-gi-	2r	.	1A/	-ci
.	.	.	.	2F/	di	.	.
.	.	1F\	-ne	2A/	.	1f\	dig-
.	.	.	.	2B-/	.	.	.
=43-	=43-	=43-	=43-	=43-	=43-	=43-	=43-
0C/	-ci	1G\	naſ-	2.c\	.	2e/	-na
.	.	.	.	.	.	2.g/	.
.	.	.	.	4B-/	.	.	.
.	.	1E/	-ci	2G/	.	.	.
.	.	.	.	.	.	4f/	.
.	.	.	.	2c\	.	4e/	.
.	.	.	.	.	.	4d/	.
=44-	=44-	=44-	=44-	=44-	=44-	=44-	=44-
1.F\	dig-	1r	.	2.A/	.	2c/	.
!	!	!	!	!	!	!LO:SIC:v:t=custos c	!
.	.	.	.	.	.	2d/	.
.	.	.	.	4B-/	.	.	.
!	!	!	!	!	!	!LO:LB:g=original	!
.	.	1F\	dig-	2A/	.	2c/	.
!	!	!	!	!LO:SIC:v:t=custos d	!	!	!
2.D/	-na-	.	.	2d\	.	2.f/	.
!	!	!	!	!LO:LB:g=original	!	!	!
=45-	=45-	=45-	=45-	=45-	=45-	=45-	=45-
*	*	*lig	*	*	*	*	*
.	.	1F\	-na-	4d\	.	.	.
4E/	.	.	.	4c\	.	4e/	.
2F\	.	.	.	4B-\	.	1d/	.
.	.	.	.	4A\	.	.	.
1E\	.	1G\	.	2G/	.	.	.
.	.	.	.	2E/	.	2c/	.
*	*	*Xlig	*	*	*	*	*
=46-	=46-	=46-	=46-	=46-	=46-	=46-	=46-
*	*	*lig	*	*	*	*	*
2.D/	.	1A\	.	2F/	.	0.d/	.
.	.	.	.	1D/	v(ir)-	.	.
4C/	.	.	.	.	.	.	.
2BB-/	.	1B-\	.	.	.	.	.
!LO:TX:t=P:problem:kreska pseudotaktowa	!	!	!	!	!	!	!
!LO:SIC:v:t=custos D	!	!	!	!	!	!	!
2GG/	.	.	.	1G/	-gi-	.	.
*	*	*Xlig	*	*	*	*	*
=47-	=47-	=47-	=47-	=47-	=47-	=47-	=47-
*	*	*lig	*	*	*	*	*
1D\	.	1A\	-t(um)	.	.	.	.
.	.	.	.	2F/	.	.	.
2GG/	.	1G\	.	2G/	.	1d/	.
2BB-/	.	.	.	2D/	.	.	.
*	*	*Xlig	*	*	*	*	*
=48-	=48-	=48-	=48-	=48-	=48-	=48-	=48-
*	*	*lig	*	*	*	*	*
2AA/	.	1A\	eſt	2E/	.	0c/	eſt
!LO:TX:t=P:problem:kreska pseudotaktowa	!	!	!	!	!	!	!
2FF/	.	.	.	2F/	.	.	.
1C/	.	1G\	.	2.E/	.	.	.
.	.	.	.	4D/	.	.	.
*	*	*Xlig	*	*	*	*	*
=49-	=49-	=49-	=49-	=49-	=49-	=49-	=49-
2BB-/	.	1G\	et	2D/	.	00r	.
1C/	-t(um)	.	.	2E/	.	.	.
.	.	1G\	pro-	2C/	.	.	.
4BB-/	.	.	.	1F/	.	.	.
4AA/	.	.	.	.	.	.	.
=50-	=50-	=50-	=50-	=50-	=50-	=50-	=50-
*	*	*lig	*	*	*	*	*
1GG/	.	1G\	-ce-	.	.	.	.
.	.	.	.	2E/	.	.	.
!LO:TX:t=P:problem:kreska pseudotaktowa	!	!	!	!	!	!	!
1FF/	eſt	1A\	.	2.F/	.	.	.
.	.	.	.	4E/	.	.	.
*	*	*Xlig	*	*	*	*	*
=51-	=51-	=51-	=51-	=51-	=51-	=51-	=51-
0r	.	2G/	-de(n)s	2E/	.	1r	.
.	.	2.B-\	ho-	2.G/	.	.	.
.	.	.	.	.	.	1g\	et
.	.	4A\	.	4F/	.	.	.
.	.	4G/	.	4E/	.	.	.
.	.	4F/	.	4D/	.	.	.
=52-	=52-	=52-	=52-	=52-	=52-	=52-	=52-
!LO:TX:t=P:problem:kreska pseudotaktowa	!	!	!	!	!	!	!
1r	.	2E/	.	1C/	-ne	1g\	pro-
.	.	1F\	.	.	.	.	.
*	*	*	*	*	*	*lig	*
1C/	et	.	.	2r	.	1g\	-ce-
.	.	2E/	.	2.c\	et	.	.
=53-	=53-	=53-	=53-	=53-	=53-	=53-	=53-
*lig	*	*lig	*	*	*	*	*
1F\	pro-	1F\	.	.	.	1a\	.
.	.	.	.	4A/	.	.	.
.	.	.	.	1d\	pro-	.	.
*	*	*	*	*	*	*Xlig	*
1E\	.	1G\	.	.	.	1g\	-de(n)s
.	.	.	.	2c\	.	.	.
*Xlig	*	*Xlig	*	*	*	*	*
=54-	=54-	=54-	=54-	=54-	=54-	=54-	=54-
*	*	*lig	*	*	*	*	*
1D\	-ce-	1A\	.	0d\	-ce-	1.f\	ho-
!LO:TX:t=P:problem:kreska pseudotaktowa	!	!	!	!	!	!	!
1BB-/	-de(n)s	1B-\	.	.	.	.	.
.	.	.	.	.	.	2.g\	.
*	*	*Xlig	*	*	*	*	*
=55-	=55-	=55-	=55-	=55-	=55-	=55-	=55-
0C/	ho-	0G\	.	0c\	-de(n)s	.	.
.	.	.	.	.	.	4f/	.
.	.	.	.	.	.	1f\	.
.	.	.	.	.	.	2e/	.
=56-	=56-	=56-	=56-	=56-	=56-	=56-	=56-
1FF/	-mo	1F\	-mo	1A\	ho-	0f\	-mo
2r	.	1r	.	1F/	-(mo)	.	.
1BB-/	ſi-	.	.	.	.	.	.
=57-	=57-	=57-	=57-	=57-	=57-	=57-	=57-
*	*	*lig	*	*	*	*	*
.	.	1F\	ſi-	00r	.	0r	.
!LO:TX:t=P:problem:kreska pseudotaktowa	!	!	!	!	!	!	!
2AA/	-ne	.	.	.	.	.	.
2.GG/	ſe-	1E/	.	.	.	.	.
4AA/	-mi-	.	.	.	.	.	.
*	*	*Xlig	*	*	*	*	*
=58-	=58-	=58-	=58-	=58-	=58-	=58-	=58-
*	*	*lig	*	*	*	*	*
!LO:TX:t=P:problem:kreska pseudotaktowa	!	!	!	!	!	!	!
0BB-/	-ne	1D/	-ne	.	.	1r	.
!	!	!LO:SIC:v:t=custos F	!	!	!	!	!
.	.	1F\	.	.	.	2r	.
.	.	.	.	.	.	1f\	ſi-
*	*	*Xlig	*	*	*	*	*
!	!	!LO:LB:g=original	!	!	!	!	!
=59-	=59-	=59-	=59-	=59-	=59-	=59-	=59-
*	*	*lig	*	*	*	*	*
0r	.	1F\	ſe-	1r	.	.	.
.	.	.	.	.	.	2e/	-ne
!	!	!	!	!LO:SIC:v:t=custos B	!	!	!
.	.	1G\	.	2r	.	2.d/	ſe-
!	!	!	!	!LO:PB:g=original	!	!	!
.	.	.	.	1B-\	ſi-	.	.
.	.	.	.	.	.	4e/	-mi-
*	*	*Xlig	*	*	*	*	*
=60-	=60-	=60-	=60-	=60-	=60-	=60-	=60-
*lig	*	*lig	*	*	*	*	*
1F\	ſe-	1F\	-mi-	.	.	1f\	-ne
.	.	.	.	2A/	-ne	.	.
1G\	.	1E/	.	2.G/	ſe-	1r	.
.	.	.	.	4A/	-mi-	.	.
*Xlig	*	*Xlig	*	*	*	*	*
=61-	=61-	=61-	=61-	=61-	=61-	=61-	=61-
*lig	*	*lig	*	*	*	*lig	*
1F\	-mi-	1D/	-ne	1B-\	-ne	1f\	ſe-
1E\	.	1C/	.	1r	.	1g\	.
*Xlig	*	*Xlig	*	*	*	*Xlig	*
=62-	=62-	=62-	=62-	=62-	=62-	=62-	=62-
*	*	*	*	*lig	*	*	*
2F\	.	1r	.	1B-\	ſe-	1.f\	-mi-
2BB-/	.	.	.	.	.	.	.
*	*	*lig	*	*	*	*	*
!LO:TX:t=P:problem:kreska pseudotaktowa	!	!	!	!	!	!	!
1FF/	-ne	1F\	lar-	1c\	.	.	.
.	.	.	.	.	.	2e/	.
*	*	*	*	*Xlig	*	*	*
=63-	=63-	=63-	=63-	=63-	=63-	=63-	=63-
!	!	!	!	!	!	!LO:SIC:v:t=custos c	!
1r	.	1G\	.	1.B-\	-mi-	0d/	.
*	*	*Xlig	*	*	*	*	*
1BB-/	lar-	1F\	-gi-	.	.	.	.
.	.	.	.	2A/	.	.	.
!	!	!	!	!	!	!LO:LB:g=original	!
=64-	=64-	=64-	=64-	=64-	=64-	=64-	=64-
1C/	-gi-	1E/	-t(us)	1.G/	-ne	1c/	-ne
0BB-/	-t(us)	2.D/	eſt	.	.	1r	.
.	.	.	.	2F/	.	.	.
.	.	4E/	.	.	.	.	.
=65-	=65-	=65-	=65-	=65-	=65-	=65-	=65-
*	*	*	*	*lig	*	*	*
.	.	2F/	.	1B-\	lar-	1r	.
.	.	2D/	.	.	.	.	.
!LO:SIC:v:t=custos GG	!	!	!	!	!	!	!
*	*	*	*	*	*	*lig	*
!LO:TX:t=P:problem:kreska pseudotaktowa	!	!	!	!	!	!	!
1AA/	eſt	2E/	.	1c\	.	1c/	lar-
.	.	1C/	.	.	.	.	.
*	*	*	*	*Xlig	*	*	*
!LO:LB:g=original	!	!	!	!	!	!	!
=66-	=66-	=66-	=66-	=66-	=66-	=66-	=66-
1GG/	no-	.	.	1B-\	-gi-	1d/	.
.	.	2BB-/	.	.	.	.	.
*	*	*	*	*	*	*Xlig	*
1FF/	-bis	2C/	.	1A\	-tus	1f\	-gi-
.	.	2D/	.	.	.	.	.
!LO:TX:t=P:problem:kreska pseudotaktowa	!	!	!	!	!	!	!
=67-	=67-	=67-	=67-	=67-	=67-	=67-	=67-
2r	.	2E/	no-	1G/	.	1g\	-tus
2C/	no-	2C/	-b(is)	.	.	.	.
*	*	*	*	*	*	*lig	*
2AA/	.	2r	.	2F/	eſt	1a\	eſt
2FF/	.	1D/	.	1F/	no-	.	.
=68-	=68-	=68-	=68-	=68-	=68-	=68-	=68-
1GG/	.	.	.	.	.	1g\	.
.	.	2BB-/	.	2E/	.	.	.
*	*	*	*	*	*	*Xlig	*
1FF/	.	1C/	no-	0F/	-b(is)	1a\	no-
=69-	=69-	=69-	=69-	=69-	=69-	=69-	=69-
!LO:TX:t=P:problem:kreska pseudotaktowa	!	!	!	!	!	!	!
1FF/	-bis	1C/	-b(is)	.	.	1a\	-b(is)
2r	.	2r	.	2r	.	2r	.
1FF/	ſu-	1F\	ſu-	1c\	ſu-	1a\	ſu-
=70-	=70-	=70-	=70-	=70-	=70-	=70-	=70-
!LO:TX:t=P:problem:kreska pseudotaktowa	!	!	!	!	!	!	!
2BB-/	-a(m)	2D/	-am	2d\	-a(m)	2f/	-a(m)
2GG/	de-	2E/	de-	2B-/	.	2g/	de-
2FF/	-i-	2F/	-i-	2A/	.	2a\	-i-
=71-	=71-	=71-	=71-	=71-	=71-	=71-	=71-
1BB-/	.	2.B-\	.	2.d\	De-	2.b-\	.
.	.	4c\	.	4c/	-i-	4a\	.
1BB-/	.	1d\	.	2B-/	.	2g/	.
.	.	.	.	2A/	.	2f/	.
=72-	=72-	=72-	=72-	=72-	=72-	=72-	=72-
1C/	-ta-	2.c\	.	1G/	.	1e\	.
.	.	4B-\	.	.	.	.	.
2D/	.	2A\	.	2F/	.	2f/	.
2E\	.	2G\	.	1c\	.	1g\	.
=73-	=73-	=73-	=73-	=73-	=73-	=73-	=73-
2F\	.	2A\	.	.	.	.	.
!LO:TX:t=P:problem:kreska pseudotaktowa	!	!	!	!	!	!	!
2BB-/	.	2B-\	.	2d\	.	1f\	.
1C/	.	1G\	-ta-	1c\	-ta-	.	.
.	.	.	.	.	.	2e/	-ta-
=74-	=74-	=74-	=74-	=74-	=74-	=74-	=74-
0FFl/;	-tem	0Fl\;	-te(m)	0cl\;	-tem	0fl\;	-tem
==-	==-	==-	==-	==-	==-	=-	=-
*-	*-	*-	*-	*-	*-	*-	*-
!!!system-decoration: [(s1,s2,s3,s4)]
!!!RDF**kern: l = terminal long
!!!AIN: 3 empty 1 tenor
!!!ENC: Filip Voros
!!!END: 2022-01-14
!!!ENC: Leszek Kubiak
!!!END: 2022-01-25
